; generated by PrusaSlicer 2.9.2 on 2025-04-15 at 15:41:33 UTC


;
;
; 

; external perimeters extrusion width = 0.45mm
; perimeters extrusion width = 0.45mm
; infill extrusion width = 0.45mm
; solid infill extrusion width = 0.45mm
; top infill extrusion width = 0.40mm
; support material extrusion width = 0.35mm
; first layer extrusion width = 0.42mm

; external perimeters extrusion width = 0.45mm
; perimeters extrusion width = 0.45mm
; infill extrusion width = 0.45mm
; solid infill extrusion width = 0.45mm
; top infill extrusion width = 0.40mm
; support material extrusion width = 0.35mm
; first layer extrusion width = 0.42mm

M73 P0 R186
M73 Q0 S188
M201 X1000 Y1000 Z200 E5000 ; sets maximum accelerations, mm/sec^2
M203 X200 Y200 Z12 E120 ; sets maximum feedrates, mm / sec
M204 S1250 T1250 ; sets acceleration (S) and retract acceleration (R), mm/sec^2
M205 X8.00 Y8.00 Z0.40 E4.50 ; sets the jerk limits, mm/sec
M205 S0 T0 ; sets the minimum extruding and travel feed rate, mm/sec

; printing object FriStackCore_3Dcover_lid_v1.0.stl id:0 copy 0
; stop printing object FriStackCore_3Dcover_lid_v1.0.stl id:0 copy 0
; printing object FriStackCore_3Dcover_bottom_v1.1.stl id:1 copy 0
; stop printing object FriStackCore_3Dcover_bottom_v1.1.stl id:1 copy 0

;TYPE:Custom
M862.3 P "MK3S" ; printer model check
M862.1 P0.4 ; nozzle diameter check
M115 U3.14.1 ; tell printer latest fw version
G90 ; use absolute coordinates
M83 ; extruder relative mode
M104 S215 ; set extruder temp
M140 S60 ; set bed temp
M190 S60 ; wait for bed temp
M109 S215 ; wait for extruder temp
G28 W ; home all without mesh bed level
G80 X92.7229 Y67.9952 W128.095 H70.9231 ; mesh bed levelling

G1 Z0.2 F720
G1 Y-3 F1000 ; go outside print area
G92 E0
G1 X60 E9 F1000 ; intro line
G1 X100 E12.5 F1000 ; intro line

G92 E0
M221 S95

; Don't change E values below. Excessive value can damage the printer.
M907 E430 ; set extruder motor current
G21 ; set units to millimeters
G90 ; use absolute coordinates
M83 ; use relative distances for extrusion

M900 K0.05 ; Filament gcode LA 1.5
M900 K30 ; Filament gcode LA 1.0




M107
;LAYER_CHANGE
;Z:0.2
;HEIGHT:0.2
G1 E-.8 F2100
M73 Q0 S187
G1 Z.6 F720
G1 X93.552 Y75.043 F10800
G1 Z.2 F720
G1 E.8 F2100
M204 S800
;TYPE:Skirt/Brim
;WIDTH:0.42
G1 F1200
G1 X96.54 Y72.055 E.13249
G1 X97.965 Y71.418 E.04894
G1 X155.628 Y68.184 E1.81082
G1 X215.453 Y68.184 E1.87577
G1 X217.001 Y68.825 E.05253
G1 X219.988 Y71.812 E.13245
G1 X220.629 Y73.36 E.05253
G1 X220.629 Y133.185 E1.87577
G1 X220.295 Y134.347 E.03791
M73 P0 R185
G1 X218.346 Y137.458 E.1151
G1 X218.038 Y137.876 E.01628
G1 X216.967 Y138.627 E.04101
G1 X216.303 Y138.73 E.02107
G1 X154.7 Y138.73 E1.93152
G1 X98.082 Y138.592 E1.77522
G1 X96.54 Y137.951 E.05236
G1 X93.552 Y134.963 E.13249
G1 X92.911 Y133.415 E.05253
G1 X92.911 Y76.59 E1.78171
G1 X93.53 Y75.098 E.05065
M204 S1000
;WIPE_START
G1 F8640
G1 X93.552 Y75.043 E-.01368
G1 X95.96 Y72.635 E-.78632
;WIPE_END
G1 Z.6 F720
G1 X96.065 Y76.226 F10800
G1 Z.2 F720
G1 E.8 F2100
M204 S800
G1 F1200
G1 X96.088 Y76.174 E.00178
G1 X96.988 Y75.107 E.04377
G1 X98.184 Y74.32 E.04489
G1 X99.727 Y73.896 E.05017
G1 X113.359 Y73.893 E.42742
G1 X114.517 Y74.135 E.03709
G1 X115.583 Y74.649 E.03711
G1 X116.645 Y75.591 E.04451
G1 X117.3 Y76.59 E.03746
G1 X117.57 Y77.39 E.02647
G1 X132.609 Y77.39 E.47154
G1 X132.866 Y76.618 E.02551
G1 X133.427 Y75.718 E.03325
G1 X134.485 Y74.726 E.04547
G1 X135.683 Y74.127 E.042
G1 X136.813 Y73.896 E.03616
G1 X150.304 Y73.898 E.423
G1 X152.043 Y74.426 E.05698
G1 X152.922 Y75.018 E.03323
G1 X153.306 Y73.571 E.04694
G1 X154.132 Y72.271 E.04829
G1 X154.739 Y71.7 E.02613
G1 X155.345 Y71.27 E.0233
G1 X157.294 Y70.659 E.06404
G1 X213.73 Y70.662 E1.76951
G1 X214.75 Y70.856 E.03255
G1 X215.728 Y71.272 E.03332
G1 X216.853 Y72.168 E.04509
G1 X217.746 Y73.506 E.05044
G1 X218.154 Y75.051 E.0501
G1 X218.154 Y131.492 E1.76967
G1 X217.798 Y132.921 E.04617
G1 X217.009 Y134.2 E.04712
G1 X216.343 Y134.844 E.02905
G1 X215.736 Y135.275 E.02334
G1 X213.787 Y135.886 E.06404
G1 X157.321 Y135.886 E1.77045
G1 X155.783 Y135.482 E.04986
G1 X154.574 Y134.71 E.04498
G1 X153.828 Y133.927 E.03391
G1 X153.516 Y134.367 E.01691
G1 X152.497 Y135.311 E.04355
G1 X151.531 Y135.801 E.03396
G1 X150.218 Y136.116 E.04234
G1 X99.756 Y136.116 E1.5822
G1 X97.909 Y135.557 E.06051
G1 X97.1 Y134.988 E.03101
G1 X96.159 Y133.953 E.04386
G1 X95.701 Y133.033 E.03222
G1 X95.387 Y131.721 E.0423
G1 X95.387 Y78.4 E1.67184
G1 X95.565 Y77.349 E.03342
G1 X96.04 Y76.281 E.03665
M204 S1000
G1 X96.379 Y76.43 F10800
M204 S800
G1 F1200
G1 X96.394 Y76.396 E.00117
G1 X97.258 Y75.371 E.04203
G1 X98.364 Y74.652 E.04136
G1 X99.752 Y74.273 E.04511
G1 X113.34 Y74.27 E.42604
G1 X114.376 Y74.486 E.03318
G1 X115.354 Y74.95 E.03394
G1 X116.344 Y75.819 E.0413
G1 X116.971 Y76.775 E.03585
G1 X117.295 Y77.767 E.03272
G1 X132.884 Y77.767 E.48878
G1 X133.198 Y76.798 E.03194
G1 X133.734 Y75.939 E.03175
G1 X134.72 Y75.021 E.04224
G1 X135.827 Y74.477 E.03867
G1 X136.868 Y74.27 E.03328
G1 X150.275 Y74.275 E.42037
G1 X151.903 Y74.777 E.05342
G1 X152.607 Y75.263 E.02682
G1 X153.299 Y75.989 E.03145
G1 X153.31 Y75.031 E.03004
G1 X153.641 Y73.746 E.04161
G1 X154.408 Y72.529 E.0451
G1 X154.987 Y71.984 E.02493
G1 X155.538 Y71.595 E.02115
G1 X157.323 Y71.036 E.05865
G1 X213.711 Y71.04 E1.76801
G1 X214.658 Y71.223 E.03024
G1 X215.555 Y71.608 E.03061
G1 X216.594 Y72.443 E.04179
G1 X217.39 Y73.634 E.04492
G1 X217.777 Y75.076 E.04681
G1 X217.777 Y131.468 E1.76813
G1 X217.44 Y132.799 E.04305
G1 X216.703 Y133.98 E.04365
G1 X216.093 Y134.561 E.02641
G1 X215.543 Y134.95 E.02112
G1 X213.758 Y135.509 E.05865
G1 X157.345 Y135.509 E1.76879
G1 X155.961 Y135.149 E.04484
G1 X154.798 Y134.405 E.04329
G1 X154.252 Y133.825 E.02498
G1 X153.839 Y133.243 E.02238
G1 X153.243 Y134.107 E.03291
G1 X152.301 Y134.988 E.04044
G1 X151.419 Y135.441 E.03109
G1 X150.195 Y135.739 E.0395
G1 X99.784 Y135.739 E1.5806
G1 X98.099 Y135.23 E.05519
G1 X97.363 Y134.717 E.02813
G1 X96.484 Y133.759 E.04077
G1 X96.062 Y132.922 E.02939
G1 X95.764 Y131.698 E.0395
G1 X95.764 Y78.415 E1.67065
G1 X95.92 Y77.478 E.02978
G1 X96.355 Y76.485 E.03399
M204 S1000
G1 X96.695 Y76.631 F10800
M204 S800
G1 F1200
G1 X96.702 Y76.615 E.00055
G1 X97.488 Y75.672 E.03849
G1 X98.545 Y74.985 E.03953
G1 X99.777 Y74.65 E.04003
G1 X113.321 Y74.647 E.42466
G1 X114.237 Y74.837 E.02933
G1 X115.128 Y75.252 E.03082
G1 X116.043 Y76.048 E.03803
G1 X116.641 Y76.96 E.03419
G1 X117.019 Y78.144 E.03897
G1 X133.161 Y78.144 E.50612
G1 X133.531 Y76.977 E.03839
M73 Q0 S186
G1 X134.04 Y76.16 E.03018
G1 X134.955 Y75.318 E.03899
G1 X135.968 Y74.827 E.0353
G1 X136.921 Y74.644 E.03043
G1 X150.247 Y74.652 E.41783
G1 X151.713 Y75.104 E.0481
G1 X152.375 Y75.561 E.02522
G1 X153.164 Y76.401 E.03613
G1 X153.397 Y76.83 E.01531
G1 X153.681 Y76.758 E.00919
G1 X153.681 Y75.101 E.05195
G1 X153.999 Y73.869 E.03989
G1 X154.683 Y72.788 E.04011
G1 X155.731 Y71.92 E.04267
G1 X157.352 Y71.413 E.05325
G1 X213.693 Y71.417 E1.76653
G1 X214.564 Y71.588 E.02783
G1 X215.381 Y71.943 E.02793
G1 X216.333 Y72.717 E.03847
G1 X217.058 Y73.815 E.04125
G1 X217.4 Y75.101 E.04172
G1 X217.4 Y131.444 E1.7666
G1 X217.082 Y132.675 E.03986
G1 X216.398 Y133.757 E.04014
G1 X215.35 Y134.624 E.04265
G1 X213.73 Y135.132 E.05323
G1 X157.369 Y135.132 E1.76716
G1 X156.137 Y134.814 E.03989
M73 P0 R184
G1 X155.056 Y134.129 E.04013
G1 X154.188 Y133.081 E.04267
G1 X153.947 Y132.346 E.02425
G1 X153.672 Y132.348 E.00862
G1 X153.401 Y133.214 E.02845
G1 X152.968 Y133.848 E.02407
G1 X152.103 Y134.666 E.03733
G1 X151.306 Y135.08 E.02816
G1 X150.171 Y135.362 E.03667
G1 X99.811 Y135.362 E1.579
G1 X98.289 Y134.903 E.04984
G1 X97.625 Y134.445 E.02529
G1 X96.807 Y133.564 E.03769
G1 X96.423 Y132.809 E.02656
G1 X96.141 Y131.674 E.03667
G1 X96.141 Y78.43 E1.66943
G1 X96.276 Y77.605 E.02621
G1 X96.671 Y76.686 E.03136
M204 S1000
G1 X97.01 Y76.835 F10800
M204 S800
G1 F1200
G1 X97.759 Y75.936 E.03669
G1 X98.723 Y75.318 E.0359
G1 X99.802 Y75.027 E.03504
G1 X113.301 Y75.024 E.42325
G1 X114.137 Y75.201 E.02679
G1 X114.942 Y75.581 E.02791
G1 X115.775 Y76.314 E.03479
G1 X116.291 Y77.102 E.02953
G1 X116.594 Y78.026 E.03049
G1 X116.622 Y78.521 E.01555
G1 X133.558 Y78.521 E.53102
G1 X133.585 Y78.033 E.01532
G1 X133.882 Y77.116 E.03022
G1 X134.345 Y76.384 E.02716
G1 X135.187 Y75.616 E.03573
G1 X136.107 Y75.178 E.03195
G1 X136.938 Y75.021 E.02652
G1 X150.218 Y75.029 E.41639
G1 X151.524 Y75.431 E.04284
G1 X152.115 Y75.835 E.02245
G1 X152.87 Y76.639 E.03458
G1 X153.217 Y77.311 E.02371
G1 X153.482 Y78.355 E.03377
G1 X153.482 Y131.664 E1.67147
G1 X153.072 Y133.026 E.0446
G1 X152.668 Y133.618 E.02247
G1 X151.864 Y134.373 E.03458
G1 X151.192 Y134.72 E.02371
G1 X150.148 Y134.985 E.03377
G1 X99.839 Y134.985 E1.5774
G1 X98.477 Y134.575 E.0446
G1 X97.885 Y134.171 E.02247
G1 X97.13 Y133.367 E.03458
G1 X96.783 Y132.695 E.02371
G1 X96.518 Y131.651 E.03377
G1 X96.518 Y78.445 E1.66824
G1 X96.632 Y77.73 E.0227
G1 X96.987 Y76.89 E.02859
M204 S1000
G1 X97.334 Y77.036 F10800
M204 S800
G1 F1200
G1 X97.346 Y77.008 E.00096
G1 X98.028 Y76.201 E.03313
G1 X98.851 Y75.674 E.03064
G1 X99.828 Y75.405 E.03177
G1 X113.28 Y75.401 E.42178
G1 X114.035 Y75.565 E.02422
G1 X114.754 Y75.909 E.02499
G1 X115.505 Y76.579 E.03156
G1 X115.94 Y77.243 E.02489
G1 X116.227 Y78.116 E.02881
G1 X116.254 Y78.899 E.02457
G1 X133.926 Y78.899 E.55409
G1 X133.952 Y78.122 E.02438
G1 X134.233 Y77.256 E.02855
G1 X134.648 Y76.61 E.02407
G1 X135.419 Y75.915 E.03255
G1 X136.202 Y75.544 E.02717
G1 X136.956 Y75.398 E.02408
G1 X150.189 Y75.407 E.41491
G1 X151.383 Y75.782 E.03924
G1 X151.855 Y76.108 E.01799
G1 X152.549 Y76.838 E.03158
G1 X152.858 Y77.428 E.02088
G1 X153.105 Y78.38 E.03084
G1 X153.105 Y131.635 E1.66977
G1 X152.721 Y132.886 E.04103
G1 X152.395 Y133.358 E.01799
G1 X151.665 Y134.052 E.03158
G1 X151.075 Y134.361 E.02088
G1 X150.123 Y134.608 E.03084
G1 X99.868 Y134.608 E1.57571
G1 X98.616 Y134.224 E.04106
G1 X98.145 Y133.898 E.01796
G1 X97.451 Y133.168 E.03158
G1 X97.142 Y132.578 E.02088
G1 X96.895 Y131.626 E.03084
G1 X96.895 Y78.459 E1.66701
G1 X96.989 Y77.855 E.01917
G1 X97.311 Y77.092 E.02597
M204 S1000
G1 X97.658 Y77.238 F10800
M204 S800
G1 F1200
G1 X97.682 Y77.182 E.00191
G1 X98.294 Y76.469 E.02946
G1 X99.028 Y76.008 E.02718
G1 X99.853 Y75.782 E.02682
G1 X113.259 Y75.779 E.42034
G1 X113.931 Y75.928 E.02158
G1 X114.564 Y76.236 E.02207
G1 X115.234 Y76.842 E.02833
G1 X115.59 Y77.384 E.02033
G1 X115.859 Y78.206 E.02712
G1 X115.882 Y79.276 E.03356
G1 X134.297 Y79.276 E.57739
G1 X134.32 Y78.211 E.0334
G1 X134.584 Y77.397 E.02683
G1 X134.949 Y76.838 E.02093
G1 X135.648 Y76.215 E.02936
G1 X136.298 Y75.909 E.02253
G1 X136.975 Y75.775 E.02164
G1 X150.103 Y75.775 E.41162
G1 X151.241 Y76.133 E.03741
G1 X151.596 Y76.383 E.01361
G1 X152.229 Y77.04 E.02861
G1 X152.5 Y77.547 E.01803
G1 X152.728 Y78.405 E.02784
G1 X152.728 Y131.606 E1.66808
G1 X152.37 Y132.744 E.03741
G1 X152.12 Y133.099 E.01361
G1 X151.463 Y133.732 E.02861
G1 X150.956 Y134.003 E.01803
G1 X150.098 Y134.231 E.02784
G1 X99.897 Y134.231 E1.57402
G1 X98.759 Y133.873 E.03741
M73 P1 R184
M73 Q1 S186
G1 X98.404 Y133.623 E.01361
G1 X97.771 Y132.966 E.02861
G1 X97.5 Y132.459 E.01803
G1 X97.272 Y131.601 E.02784
G1 X97.272 Y78.472 E1.66582
G1 X97.346 Y77.979 E.01563
G1 X97.635 Y77.294 E.02331
M204 S1000
G1 X97.977 Y77.434 F10800
M204 S800
G1 F1200
G1 X97.99 Y77.402 E.00108
G1 X98.523 Y76.77 E.02592
G1 X99.156 Y76.364 E.02358
G1 X99.928 Y76.152 E.0251
G1 X113.237 Y76.156 E.41729
G1 X113.824 Y76.29 E.01888
G1 X114.372 Y76.562 E.01918
G1 X114.934 Y77.071 E.02377
G1 X115.24 Y77.527 E.01722
G1 X115.492 Y78.295 E.02534
G1 X115.508 Y79.653 E.04258
G1 X134.672 Y79.653 E.60087
G1 X134.688 Y78.299 E.04246
G1 X134.934 Y77.539 E.02505
G1 X135.249 Y77.068 E.01777
G1 X135.836 Y76.543 E.02469
G1 X136.398 Y76.274 E.01954
G1 X136.995 Y76.152 E.01911
G1 X150.074 Y76.152 E.41008
G1 X151.05 Y76.459 E.03208
G1 X151.912 Y77.244 E.03656
G1 X152.142 Y77.669 E.01515
G1 X152.351 Y78.431 E.02477
G1 X152.351 Y131.577 E1.66636
G1 X152.044 Y132.553 E.03208
G1 X151.259 Y133.415 E.03656
G1 X150.834 Y133.645 E.01515
G1 X150.072 Y133.854 E.02477
G1 X99.926 Y133.854 E1.57229
G1 X98.95 Y133.547 E.03208
M73 Q1 S185
G1 X98.088 Y132.762 E.03656
G1 X97.858 Y132.337 E.01515
G1 X97.649 Y131.575 E.02477
G1 X97.649 Y78.485 E1.6646
G1 X97.704 Y78.099 E.01223
G1 X97.954 Y77.489 E.02067
M204 S1000
G1 X98.301 Y77.634 F10800
M204 S800
G1 F1200
G1 X98.325 Y77.576 E.00197
G1 X98.79 Y77.038 E.0223
G1 X99.286 Y76.718 E.01851
G1 X99.955 Y76.529 E.0218
G1 X113.214 Y76.533 E.41573
G1 X113.714 Y76.651 E.01611
G1 X114.178 Y76.886 E.01631
G1 X114.637 Y77.304 E.01947
G1 X114.89 Y77.672 E.014
G1 X115.124 Y78.384 E.0235
G1 X115.131 Y80.03 E.05161
G1 X135.049 Y80.03 E.62451
G1 X135.056 Y78.387 E.05152
G1 X135.284 Y77.682 E.02323
G1 X135.546 Y77.3 E.01452
G1 X136.024 Y76.871 E.02014
G1 X136.539 Y76.624 E.01791
G1 X137.013 Y76.529 E.01516
G1 X150.045 Y76.529 E.40861
G1 X150.861 Y76.786 E.02682
G1 X151.596 Y77.452 E.0311
G1 X151.786 Y77.794 E.01227
G1 X151.974 Y78.458 E.02164
G1 X151.974 Y131.548 E1.6646
G1 X151.717 Y132.364 E.02682
G1 X151.051 Y133.099 E.0311
G1 X150.709 Y133.289 E.01227
G1 X150.045 Y133.477 E.02164
G1 X99.955 Y133.477 E1.57054
G1 X99.139 Y133.22 E.02682
M73 P1 R183
G1 X98.404 Y132.554 E.0311
G1 X98.214 Y132.212 E.01227
G1 X98.026 Y131.548 E.02164
G1 X98.026 Y78.499 E1.66331
G1 X98.073 Y78.178 E.01017
G1 X98.278 Y77.69 E.0166
M204 S1000
G1 X98.623 Y77.838 F10800
M204 S800
G1 F1200
G1 X98.659 Y77.754 E.00287
G1 X99.054 Y77.308 E.01868
G1 X99.42 Y77.072 E.01365
G1 X99.983 Y76.906 E.0184
G1 X113.192 Y76.91 E.41416
G1 X113.984 Y77.21 E.02655
G1 X114.563 Y77.861 E.02732
G1 X114.747 Y78.416 E.01833
G1 X114.756 Y80.407 E.06243
G1 X135.424 Y80.407 E.64803
G1 X135.433 Y78.418 E.06236
G1 X135.612 Y77.87 E.01808
G1 X135.819 Y77.561 E.01166
G1 X136.213 Y77.199 E.01678
G1 X136.68 Y76.975 E.01624
G1 X137.031 Y76.906 E.01122
G1 X150.016 Y76.906 E.40714
G1 X150.675 Y77.115 E.02168
G1 X151.282 Y77.663 E.02564
G1 X151.597 Y78.486 E.02763
G1 X151.597 Y131.519 E1.66281
G1 X151.388 Y132.178 E.02168
G1 X150.84 Y132.785 E.02564
G1 X150.017 Y133.1 E.02763
G1 X99.984 Y133.1 E1.56875
G1 X99.325 Y132.891 E.02168
G1 X98.718 Y132.343 E.02564
G1 X98.403 Y131.52 E.02763
G1 X98.442 Y78.26 E1.66993
G1 X98.599 Y77.893 E.01252
M204 S1000
G1 X98.96 Y78.021 F10800
M204 S800
G1 F1200
G1 X98.99 Y77.937 E.0028
G1 X99.316 Y77.58 E.01516
G1 X100.012 Y77.283 E.02373
G1 X113.17 Y77.287 E.41256
G1 X113.413 Y77.344 E.00783
G1 X113.787 Y77.533 E.01314
G1 X114.087 Y77.822 E.01306
G1 X114.37 Y78.45 E.0216
G1 X114.38 Y80.784 E.07318
G1 X135.799 Y80.784 E.67158
G1 X135.81 Y78.45 E.07318
G1 X136.096 Y77.817 E.02178
G1 X136.404 Y77.525 E.01331
G1 X136.82 Y77.326 E.01446
G1 X149.987 Y77.283 E.41284
G1 X150.493 Y77.446 E.01667
G1 X150.972 Y77.878 E.02022
G1 X151.22 Y78.515 E.02143
G1 X151.22 Y131.49 E1.66099
G1 X151.057 Y131.996 E.01667
G1 X150.625 Y132.475 E.02022
G1 X149.988 Y132.723 E.02143
G1 X100.013 Y132.723 E1.56693
G1 X99.507 Y132.56 E.01667
G1 X99.028 Y132.128 E.02022
G1 X98.78 Y131.491 E.02143
G1 X98.78 Y78.53 E1.66055
G1 X98.94 Y78.077 E.01506
M204 S1000
G1 X99.286 Y78.209 F10800
M204 S800
G1 F1200
G1 X99.319 Y78.124 E.00286
G1 X99.7 Y77.773 E.01624
G1 X100.044 Y77.66 E.01135
G1 X113.148 Y77.664 E.41087
G1 X113.588 Y77.855 E.01504
G1 X113.874 Y78.168 E.01329
G1 X113.993 Y78.487 E.01068
G1 X114.005 Y81.161 E.08384
G1 X136.175 Y81.161 E.69512
G1 X136.187 Y78.486 E.08387
G1 X136.372 Y78.076 E.0141
G1 X136.639 Y77.822 E.01155
G1 X136.952 Y77.68 E.01078
G1 X149.956 Y77.66 E.40773
G1 X150.317 Y77.779 E.01192
G1 X150.666 Y78.1 E.01487
G1 X150.843 Y78.547 E.01507
G1 X150.843 Y131.459 E1.65902
G1 X150.706 Y131.85 E.01299
G1 X150.403 Y132.169 E.01379
G1 X149.956 Y132.346 E.01507
G1 X100.044 Y132.346 E1.56496
G1 X99.653 Y132.209 E.01299
G1 X99.334 Y131.906 E.01379
G1 X99.157 Y131.459 E.01507
G1 X99.157 Y78.547 E1.65902
G1 X99.265 Y78.265 E.00947
M204 S1000
G1 X99.576 Y78.487 F10800
M204 S800
G1 F1200
G1 X99.825 Y78.137 E.01347
G1 X100.079 Y78.037 E.00856
